icons/strikethrough.svg

<svg xmlns="http://www.w3.org/2000/svg" width="24" height="24" viewBox="0 0 24 24">
    <path fill="#3A3A47" fill-rule="evenodd" d="M12.331 4c1.512 0 2.903.291 4.174.873.434.265.583.645.445 1.139-.137.493-.483.674-1.036.543-1.298-.554-2.506-.83-3.624-.83-.898 0-1.6.198-2.108.596-.507.397-.761.954-.761 1.671 0 .511.098.935.295 1.272.197.337.514.644.953.921.383.242.957.513 1.722.815H19c.668-.003 1.001.33 1 1-.001.67-.334 1.003-1 1l-3.047-.001c.212.237.385.489.52.757.263.522.394 1.145.394 1.869 0 1.355-.476 2.423-1.43 3.204-.952.78-2.278 1.171-3.976 1.171-1.598 0-2.873-.194-3.825-.582-.118-.048-.763-.458-.614-1.198.149-.74.752-.63 1.002-.542.436.153.896.28 1.381.385.763.163 1.476.244 2.139.244 1.132 0 1.985-.223 2.558-.67.573-.447.86-1.061.86-1.842 0-.518-.104-.944-.311-1.277-.207-.334-.554-.646-1.041-.937-.3-.179-.693-.373-1.181-.581H5c-.667.003-1-.33-1-1 0-.67.333-1.003 1-1l3.645.001a3.848 3.848 0 0 1-.25-.268c-.6-.713-.9-1.634-.9-2.762 0-1.214.443-2.179 1.33-2.896C9.713 4.358 10.881 4 12.331 4z"/>
</svg>

<svg width="24" height="24" viewBox="0 0 24 24" fill="none" xmlns="http://www.w3.org/2000/svg">
<path fill-rule="evenodd" clip-rule="evenodd" d="M12.429 13H5C4.333 13.003 4 12.67 4 12C4 11.33 4.333 10.997 5 11H8.643C8.5565 10.9149 8.47408 10.8258 8.396 10.733C7.795 10.02 7.495 9.099 7.495 7.971C7.495 6.757 7.938 5.792 8.825 5.075C9.713 4.358 10.881 4 12.331 4C13.843 4 15.234 4.291 16.505 4.873C16.939 5.138 17.088 5.518 16.95 6.012C16.813 6.505 16.467 6.686 15.914 6.555C14.616 6.001 13.408 5.725 12.29 5.725C11.392 5.725 10.69 5.923 10.182 6.321C9.675 6.718 9.421 7.275 9.421 7.992C9.421 8.503 9.519 8.927 9.716 9.264C9.913 9.601 10.23 9.908 10.669 10.185C11.052 10.427 11.626 10.699 12.392 11H19C19.668 10.997 20.001 11.33 20 12C19.999 12.67 19.666 13.003 19 13H15.954C16.165 13.236 16.339 13.488 16.474 13.756C16.736 14.278 16.867 14.901 16.867 15.625C16.867 16.98 16.391 18.048 15.437 18.829C14.485 19.609 13.159 20 11.461 20C9.863 20 8.588 19.806 7.636 19.418C7.518 19.37 6.873 18.96 7.022 18.22C7.171 17.48 7.774 17.59 8.024 17.678C8.46 17.831 8.92 17.958 9.405 18.063C10.168 18.226 10.881 18.307 11.544 18.307C12.676 18.307 13.529 18.084 14.102 17.637C14.675 17.19 14.962 16.576 14.962 15.795C14.962 15.277 14.858 14.851 14.651 14.518C14.444 14.184 14.097 13.872 13.61 13.581C13.31 13.402 12.917 13.208 12.429 13Z" fill="#3A3A47"/>
</svg>
